assets/img/icons/duotone-icons/Shopping/Sort#2.svg

<?xml version="1.0" encoding="UTF-8"?>
<svg width="24px" height="24px" viewBox="0 0 24 24" version="1.1" xmlns="http://www.w3.org/2000/svg" xmlns:xlink="http://www.w3.org/1999/xlink">
    <!-- Generator: Sketch 52.2 (67145) - http://www.bohemiancoding.com/sketch -->
    <title>Stockholm-icons / Shopping / Sort#2</title>
    <desc>Created with Sketch.</desc>
    <g id="Stockholm-icons-/-Shopping-/-Sort#2" stroke="none" stroke-width="1" fill="none" fill-rule="evenodd">
        <rect id="bound" x="0" y="0" width="24" height="24"></rect>
        <path d="M5.5,6 C6.32842712,6 7,6.67157288 7,7.5 L7,18.5 C7,19.3284271 6.32842712,20 5.5,20 C4.67157288,20 4,19.3284271 4,18.5 L4,7.5 C4,6.67157288 4.67157288,6 5.5,6 Z M11.5,11 C12.3284271,11 13,11.6715729 13,12.5 L13,18.5 C13,19.3284271 12.3284271,20 11.5,20 C10.6715729,20 10,19.3284271 10,18.5 L10,12.5 C10,11.6715729 10.6715729,11 11.5,11 Z M17.5,15 C18.3284271,15 19,15.6715729 19,16.5 L19,18.5 C19,19.3284271 18.3284271,20 17.5,20 C16.6715729,20 16,19.3284271 16,18.5 L16,16.5 C16,15.6715729 16.6715729,15 17.5,15 Z" id="Combined-Shape" fill="#335EEA"></path>
    </g>
</svg>

<svg width="24" height="24" viewBox="0 0 24 24" xmlns="http://www.w3.org/2000/svg"><g fill="none" fill-rule="evenodd"><path d="M0 0h24v24H0z"/><path d="M5.5 6A1.5 1.5 0 017 7.5v11a1.5 1.5 0 01-3 0v-11A1.5 1.5 0 015.5 6zm6 5a1.5 1.5 0 011.5 1.5v6a1.5 1.5 0 01-3 0v-6a1.5 1.5 0 011.5-1.5zm6 4a1.5 1.5 0 011.5 1.5v2a1.5 1.5 0 01-3 0v-2a1.5 1.5 0 011.5-1.5z" fill="#335EEA"/></g></svg>
